X:993
T:Reel 993
M:4/4
K:Gmaj
L:1/8
B|dggf g2fd|dGGB AGFA|dg (3gfg fdcA|GBAG ADFA|dg (3gfg fage|dg (3gfg agfg|afge fdec|dcAB c2|Bc|dgga bgaf|dgge fdcA|dggg agge|dgfd cAFA|dggf abag|dgge f2fg|abag fgfe|dfeg fdcA|
